**kern	**silbe
*ICvox	*
*A:	*
*M4/4	*
*clefF4	*
r;	.
=1	=1
1r	.
=2	=2
1r	.
=3	=3
1r	.
=4	=4
1r	.
=5	=5
1r	.
=6	=6
1r	.
=7	=7
1r	.
=8	=8
2r	.
4r	.
8r	.
16E	i
16E	was
=9	=9
8B	eight
4c#	years
8[c#	old
8c#]	_
4r	.
8E	and
=10	=10
8B	run-
4c#	-ning
8[c#	with
8c#]	_
4r	.
8c#	a
=11	=11
2d	dime
8c#	in
4c#	my
8B	_
=12	=12
2B	hand
4r	.
16r	.
16E	in
16E	to
16E	the
=13	=13
8A	bus
4B	stop
8B	to
4B	pick
4r	.
=14	=14
8A	up
4B	a
8[B	pa-
8B]	_
8B	-per
8r	.
8B	for
=15	=15
2c#	my
8B	old
4.A	_
=16	=16
8A	man
4.F#	_
4r	.
8r	.
8E	I'd
=17	=17
8B	sit
8c#	on
8c#	his
8[c#	lap
8c#]	_
4r	.
16E	in
16E	that
=18	=18
8B	big
4c#	old
8c#	Bu-
8c#	-ick
4r	.
8[d	steer
=19	=19
4d]	_
8d	as
8d	we
4c#	drove
4B	through
=20	=20
2B	town
4r	.
8r	.
8E	He'd
=21	=21
8A	tou-
8B	-sle
8B	my
8[B	hair
8B]	_
4r	.
8E	and
=22	=22
8A	say
4B	\"Son
8[B	take
4B]	_
8r	.
8B	a
=23	=23
2c#	good
8B	look
4.A	a-
=24	=24
8A	-round
4.F#	_
4r	.
8r	.
16AA	this
16AA	is
=25	=25
8C#	your
4E	home-
8[E	-town
2E]	_
=26	=26
2r	.
4r	.
8r	.
16c#	this
16c#	is
=27	=27
2d	your
8c#	home-
4.B	_
=28	=28
2B	-town
4r	.
8r	.
16E	this
16E	is
=29	=29
8A	your
4B	home-
8[B	-town
2B]	_
=30	=30
2r	.
4r	.
8r	.
16B	this
16B	is
=31	=31
2c#	your
8B	home-
4.A	_
=32	=32
8A	-town
4.F#	_
2r	.
=33	=33
1r	.
=34	=34
2r	.
4r	.
8r	.
8E	in
=35	=35
8B	six-
4c#	-ty-
8[c#	-five
8c#]	_
8E	ten-
8E	-sion
8E	was
=36	=36
8r	.
8B	run-
8c#	-ning
8[c#	high
8c#]	_
4r	.
8c#	at
=37	=37
2d	my
4.c#	high-
8[B	-school
=38	=38
2B]	_
4r	.
8r	.
16E	there
16E	was
=39	=39
8A	lots
4B	of
8[B	fights
8B]	_
8r	.
16r	.
16E	be
16E	tween
16E	the
=40	=40
8A	black
4B	and
8[B	white
4B]	_
8r	.
16B	there
16B	was
=41	=41
8c#	no-
4.c#	-thing
8B	you
4.A	_
=42	=42
8A	could
8F#	do
2r	.
8r	.
8E	Two
=43	=43
8B	cars
8c#	at
8c#	a
8[c#	light
8c#]	_
4r	.
16E	on
16E	a
=44	=44
8B	Sa-
8c#	-tur-
8c#	-day
4c#	night
4r	.
16c#	in
16d	a
=45	=45
8d	back
4.d	seat
8c#	there
4c#	was
8B	a
=46	=46
2B	gun
2r	.
=47	=47
8A	words
4B	were
8[B	passed
8B]	_
4r	.
16E	and
16E	a
=48	=48
8A	shot-
4B	-gun
8[B	blast
8B]	_
4r	.
16B	trou-
16B	-bled
=49	=49
2c#	times
8B	had
4.A	_
=50	=50
8A	come
4.F#	_
4r	.
8r	.
8AA	to
=51	=51
8C#	my
4E	home-
8[E	-town
2E]	_
=52	=52
2r	.
4r	.
8r	.
8c#	to
=53	=53
2d	my
8c#	home-
4.B	_
=54	=54
2B	-town
4r	.
8r	.
8E	to
=55	=55
8A	my
4B	home-
8B	-town
8A	_
8G#	_
4r	.
=56	=56
2r	.
4r	.
8r	.
8B	to
=57	=57
2c#	my
8B	home-
4.A	_
=58	=58
8A	-town
4.F#	_
2r	.
=59	=59
1r	.
=60	=60
2r	.
4r	.
8r	.
8E	Now
=61	=61
4B	Main
4A	Street's
4A	white
4A	washed
=62	=62
8B	win-
8A	-dows
2r	.
8r	.
8E	and
=63	=63
8B	va-
4c#	-cant
8c#	stores
8B	_
8[A	_
4A]	_
=64	=64
2r	.
4r	.
8r	.
8A	seems
=65	=65
8B	like
4A	there
8[A	ain't
8A]	_
4A	no-
8[B	-bo-
=66	=66
8B]	_
8A	-dy
4r	.
8A	wants
8A	to
8A	come
8[B	down
=67	=67
8B]	_
8c#	here
8c#	no
8[c#	more
4c#]	_
4r	.
=68	=68
2r	.
4r	.
8r	.
8A	They're
=69	=69
8B	clos-
4A	-ing
8[A	down
8A]	_
4r	.
8A	the
=70	=70
8B	text-
4A	-ile
8[A	mill
8A]	_
4r	.
8B	a
=71	=71
16B	cross
16B	the
8[c#	rail-
8c#]	_
8c#	-road
16c#	tracks
16B	_
8[A	_
4A]	_
=72	=72
2r	.
4r	.
8A	Fore-
8A	-man
=73	=73
8B	says
4A	\"These
8[A	jobs
4.A]	_
8A	are
=74	=74
8B	go-
4A	-ing
8[A	boys
8A]	_
4r	.
8B	and
=75	=75
8c#	they
4.c#	ain't
8d	com-
8c#	-ing
4B	_
=76	=76
2B	back
4r	.
8r	.
8E	to
=77	=77
8B	your
4c#	home-
8[c#	-town
2c#]	_
=78	=78
2r	.
4r	.
8r	.
8c#	to
=79	=79
2d	your
8c#	home-
4.B	_
=80	=80
2B	-town
4r	.
8r	.
8E	to
=81	=81
8A	your
4B	home-
8[B	-town
8B]	_
8A	_
8G#	_
8r	.
=82	=82
2r	.
4r	.
8r	.
8B	to
=83	=83
2c#	your
8B	home-
4.A	_
=84	=84
8A	-town
4.F#	_
2r	.
=85	=85
1r	.
=86	=86
2r	.
4r	.
8r	.
8E	Last
=87	=87
8B	night
8c#	me
8c#	and
8[c#	Kate
8c#]	_
4r	.
8E	we
=88	=88
8B	laid
4c#	in
8[c#	bed
8c#]	_
4r	.
8[d	talk-
=89	=89
8d]	_
8d	-in'
4d	'bout
8c#	get-
8c#	-ting
4B	_
=90	=90
2B	out
2r	.
=91	=91
8A	pack-
4B	-ing
8[B	up
8B]	_
4r	.
8r	.
=92	=92
8A	our
4[B	bags
8B]	_
8B	may
4.B	be
=93	=93
2c#	head-
8B	-ing
4.A	_
=94	=94
8A	south
4.F#	_
4r	.
8r	.
8E	I'm
=95	=95
8B	thir-
4c#	-ty-
8[c#	-five
8c#]	_
4r	.
8E	we
=96	=96
8B	got
4c#	a
8[c#	boy
8c#]	_
4r	.
8c#	of
=97	=97
2d	our
8c#	own
4.B	_
=98	=98
4B	now
4r	.
8r	.
8E	Last
8E	night
8E	I
=99	=99
8A	sat
4B	him
8[B	_
8B]	_
4r	.
8E	be-
=100	=100
8A	-hind
4B	the
8[B	wheel
8B]	_
8B	and
4B	said
=101	=101
4c#	\"Son
8c#	take
8c#	a
8B	good
4A	look
8A	a-
=102	=102
8A	-round
4.F#	_
2r	.
=103	=103
2r	.
4r	.
8r	.
16AA	This
16AA	is
=104	=104
8C#	your
4E	home-
8[E	-town
2E]	_
=105	=105
1r	.
=106	=106
1r	.
=107	=107
1r	.
=108	=108
1r	.
=109	=109
1r	.
=110	=110
1r	.
=111	=111
1r	.
=112	=112
1r	.
=113	=113
1r	.
=114	=114
1r	.
=115	=115
1r	.
=116	=116
1r	.
=117	=117
1r	.
=118	=118
1r	.
=119	=119
1r	.
=120	=120
1r	.
=121	=121
1r	.
=122	=122
1r	.
=123	=123
1r	.
=124	=124
1r	.
=125	=125
1r	.
=126	=126
1r	.
=127	=127
1r	.
=128	=128
1r	.
=129	=129
1r	.
=130	=130
1r	.
=131	=131
1r	.
=132	=132
1r	.
=133	=133
1r	.
r;	.
r;	.
*-	*-
!!!ENC: Nathaniel Condit-Schultz